X: 1426
T: Nazar Etti Bazı Yârân
C: Tanburî Mustafa Çavuş
O: Turkey
F: http://compmusic.upf.edu/node/140
N: mahur--tavsanca--aksak--nazar_etti--tanburi_mustafa_cavus
N: makam= mahur
N: form= tavsanca
N: usul= aksak = 9/8
M: 9/8
L: 1/16
K: C ^9/8f   
Q: 1/4=150
%%MIDI tuningsystem comma53
.g4 e2f2 g4 a6 | g4c'2 baag gfg4f2  | \
w:  *  Na zar_ et ti   |  ba zı  *  *  yâ *  *  *  rân    | 
.g4 g2a2 g2f2 e4 d2 | 
w:  *  Ol  mağ be *  çe   | 
e2 f2e2 f2.d4f2 g2a2  | {b}a3g f2g2 a2f2 g4 f2 | \
w:  al *  *  *  dı  mey  |  *  dan  *  *  a man_ a man    | 
.g4f2 g2a2 b2c'2 b2a2  | 
w:  *  Na zar_ et *  ti   | 
fga2 c'2ba aggf g4 f2 | .g4g2 a2g2 f2e4d2  | \
w:  ba *  *  zı  *  *  yâ *  *  *  rân    |  *  Ol  mağ be *  çe   | 
e2f2 e2f2 .d4 f2g2 a2 | 
w:  al *  *  *  dı  mey  | 
{b}a3gf2 g2a2 f2g4f2  | .g4 g2a2 g2f2 e6 | \
w:  *  dan  *  *  a man_ a man    |  *  Ne  a yar *  dır   | 
f2 e2f2 g2f2 efg4fe  | 
w:  ma *  lum  *  ol *  *  du    | 
d3c d2e2 =f2e2 d2c2 B2 | A3GA2 c2B2 G2A2 G2F2  | \
w:  *  *  Dam ga lan *  dı   |  gü *  *  *  müş  *  ger  | 
G4 F2G2 A2B2 c6 | 
w:  dan   Ge çi lir  *  mi   | 
c3BB2 A2A4d4^c2  | .d4 B2c2 B3A G6 | \
w:  şî *  ve *  kâr dan    |  *  E le  gir *  se   | 
A3GA2 c2B2 G2A2 G2F2  | 
w:  gü *  *  *  müş  *  ger  | 
G3c' b2a2 g2fg e4 d2 | z2 d_7/8ede dcB2 A2B4G2  | \
w:  dan   ARANAĞME  |   | 
z2e=f e2d2 c2B2 d4 e2 | 
w:   | 
z2 d^cdc _7/8BABA GFG4z2  | G3c' b2a2 g2fg e4 d2 | 
w:   |  dan   ARANAĞME  | 
z2 d_7/8ede dcB2 A2B4G2  | z2e=f e2d2 c2B2 d4 e2 | \
w:   |   | 
z2 dcdc BABA GFG4f2  | 
w:   | 
.g4 e2f2 g4 a6 | g4c'2 baag gfg4f2  | \
w:  *  Na zar_ et ti   |  ba zı  *  *  yâ *  *  *  rân    | 
.g4 g2a2 g2f2 e4 d2 | 
w:  *  Ol  mağ be *  çe   | 
e2 f2e2 f2.d4f2 g2a2  | {b}a3g f2g2 a2f2 g4 f2 | \
w:  al *  *  *  dı  mey  |  *  dan  *  *  a man_ a man    | 
.g4f2 g2a2 b2c'2 b2a2  | 
w:  *  Na zar_ et *  ti   | 
fga2 c'2ba aggf g4 f2 | .g4g2 a2g2 f2e4d2  | \
w:  ba *  *  zı  *  *  yâ *  *  *  rân    |  *  Ol  mağ be *  çe   | 
e2f2 e2f2 .d4 f2g2 a2 | 
w:  al *  *  *  dı  mey  | 
{b}a3gf2 g2a2 f2g4f2  | .g4 g2a2 g2f2 e6 | \
w:  *  dan  *  *  a man_ a man    |  *  Ne  a yar *  dır   | 
f2 e2f2 g2f2 efg4fe  | 
w:  ma *  lum  *  ol *  *  du    | 
d3c d2e2 =f2e2 d2c2 B2 | A3GA2 c2B2 G2A2 G2F2  | \
w:  *  *  Dam ga lan *  dı   |  gü *  *  *  müş  *  ger  | 
G4 F2G2 A2B2 c6 | 
w:  dan   Ge çi lir  *  mi   | 
c3BB2 A2A4d4^c2  | .d4 B2c2 B3A G6 | \
w:  şî *  ve *  kâr dan    |  *  E le  gir *  se   | 
A3GA2 c2B2 G2A2 G2F2  | 
w:  gü *  *  *  müş  *  ger  | 
G3c' b2a2 g2fg e4 d2 | z2 d_7/8ede dcB2 A2B4G2  | \
w:  dan   ARANAĞME  |   | 
z2e=f e2d2 c2B2 d4 e2 | 
w:   | 
z2 d^cdc _7/8BABA GFG4z2  | |


